X:1
T:Title
%%score { 1 | 2 }
L:1/8
M:3/4
K:D
V:1 treble nm="Grand Piano"
V:2 bass 
V:1
 z2 z[Q:1/4=100] D F[EG] | [FA]3 [FA] [GB][FA] | [Fd]3 [Fd] [Ac][GB] | [FA]3 [GB] [FA][DF] | %4
[M:3/8] [CE]3 | DF[EG] |[M:3/4] [FA]3 [FA] [GB][FA] | [Fd]3 [B,DE] [B,DG][DB] | %8
 [DA]3 [DF] [CG][K:bass][G,CE] |[M:3/8] [F,D]3 | [DFA][CGA][CGA] | %11
[M:3/4] [DFA]3 [A,DF] [DFA][FAd] | c3 c cc | e3 [Fd] [Ec][DB] |[M:3/8] [CA]2 [EG] | %15
[M:1/4] [DF][EG] |[M:3/4] [FA]3 [FA] [GB][FA] | [Fd]3 [B,DE] [B,DG][DB] | [DA]3 [DF] [CG][CE] | %19
[M:11/8] D3 z z z z z z z2 |] %20
V:2
 z2 z [D,F,] [D,A,D][D,A,] | [D,D]3 [D,D] [D,D][D,D] | [D,A,]3 [D,D] [G,D][G,D] | %3
 [D,D]3 [D,D] [D,D][D,A,] |[M:3/8] [A,,A,]3 | [D,F,][D,A,D][D,A,] | %6
[M:3/4] [D,D]3 [D,D] [D,D][D,D] | [D,A,]3 G,, G,,[G,,G,] | [A,,F,]3 [A,,A,] [A,,E,]A,, | %9
[M:3/8] D,3 | D,E,A,, |[M:3/4] D,3 D, D,D, | [A,EA]3 [A,EA] [A,EA][A,EA] | %13
 [A,CE]3[K:bass] [D,A,] [E,A,][E,^G,] |[M:3/8] [A,,A,]2 [A,,A,] |[M:1/4] [D,A,][D,A,] | %16
[M:3/4] [D,D]3 [D,D] [D,D][D,D] | [D,A,]3 G,, G,,[G,,G,] | [A,,F,]3 [A,,A,] [A,,E,][A,,G,] | %19
[M:11/8] [D,F,]3 z z z z z z z2 |] %20

